X: 13211
T: Hallow Een
%R: march, reel
B: James Oswald "The Caledonian Pocket Companion" v.1 b.3 p.21 #1
S: https://ia800501.us.archive.org/18/items/caledonianpocket01rugg/caledonianpocket01rugg_bw.pdf
Z: 2020 John Chambers <jc:trillian.mit.edu>
M: C
L: 1/8
K: G
"_Moderately Quick"dc |\
B2TA>G G2g>a | {ga}b2Ta>g e3g |\
B3g (dB)(AG) | F2(AB) A2(dc) |\
B2(AG) G2(ga) | {ga}b2Ta>g e3g |
(Bcd)F GEFD | E2G>A G2 :: (gf) |\
edef gagf | edef g2GA |\
B3g (d>B) TA>G | F2A2 A2dc |\
BABG dcdB |
a>bag f2ed |\
(c'b)(Tag) fefd | e2(ga) g2 :: "_Var.n"(dc) |\
{c}B2TAG G2g>a | {ga}b2 Ta>g e3g |\
(B/c/d/e//f//) ge (d<B) TA>G | F2(AB) A2(dc) |
{c}B2(AG) G2(ga) | {ga}b2Ta>g e3g |\
(B/A/B/c/) dF (GE)(FD) | E2(GA) G2 :: gf |\
Tedef (g/f/g/)a/ (g/a/g/)f/ | ed e/g/f/a/ g2GA |
B3g (d<B) TA>G | (FG)(AB) A2dc |\
(B/A/B/c/) BG (d/c/d/e/) dB | (a/g/a/b/) (a/b/a/)g/ fa fe/d/ |\
a/b/c'/b/ a/b/a/g/ Tfe(fd) | e2(ga) g2 :|


